src/assets/images/valid-mark.svg

<svg height="170" viewBox="0 0 308 170" width="308" xmlns="http://www.w3.org/2000/svg"><g fill="none"><path d="m7.682 15.771 284.56-11.069v150.661l-281.242 6.637z" fill="#fff"/><g fill="#917149"><path d="m5.53641759 17.1215154c13.04976241-7.61792022 7.88914581 19.2594471 7.67494861 23.9111775-.6434955 14.0048987.2295616 27.3925191 1.6385636 41.3088479 1.290606 12.7549778-.1934102 25.4521142-.6886848 38.2079952-.2630016 6.771987-.4067036 13.534032-.9164387 20.29427-.1583692 2.108308.0855567 11.609173-1.0200765 16.668779 2.8452463-.123175 5.5520929.004111 7.0621553-.041577 10.571582-.319936 21.1440677-.600107 31.713842-.997768 40.6613209-1.529187 81.3452369-.837799 121.9984229-2.769166 38.451565-1.828337 77.044121-2.216057 115.524606-2.688731 3.366602.293727 4.872309 3.828391 2.711358 6.545139-2.113955 2.658002-11.914608 2.075067-14.969404 2.321798-10.838198.871239-21.65561 1.263478-32.526345 1.367412-22.892893.21781-45.699023 1.199309-68.553957 2.503457-40.607997 2.315472-81.2756448 2.123871-121.9053332 3.776876-9.8621101.401276-19.725124.701329-29.5917531.959809-5.2030945.13647-18.8285685 3.271666-21.40616546-2.947211-1.82059925-4.394165.71003091-6.416805 4.41168054-7.337341-.76039811-3.382175-.34863851-8.551922-.39100887-9.747171-.19883287-5.602502-.26842437-11.207715-.48442916-16.808409-.51335031-13.346951-.85407754-26.770722-1.88258572-40.0878478-.98241511-12.7296721-3.46421079-25.0734322-3.53560986-37.8980007-.04790064-8.6735295-2.45739346-30.6506283 5.13621442-36.5423381zm283.19711841-2.9389862c.007491-5.69468684 6.833784-6.83976988 9.861467-2.9670936 2.895729 3.7045741 1.032123 14.9204229 1.102618 19.3525359.207268 12.982227 1.320732 25.8980433 2.486643 38.8185409l.438008 4.8455449c1.301451 14.4188277 2.222409 28.8439817 3.226515 43.2854037.46545 6.674379 5.592626 33.31315-1.859991 37.202094-9.511441 4.962629-7.716523-20.287039-7.98314-24.889966-.854981-14.816488-1.929582-29.65286-3.269896-44.4322943-2.166375-23.893102-4.020039-47.2249596-4.002224-71.2147655zm-57.109419-14.15375053c12.302332-.11387566 24.536879.10122282 36.821135.80616738 5.448021.31270618 10.89333.61456706 16.344966.84502971 3.149693.13375871 10.344731-.89925621 13.1067.5621481 10.844526 5.73897181-11.248517 6.36799927-13.934568 6.32281051-11.270209-.18979277-22.518726-1.06735837-33.788031-1.34391355-41.449422-1.01855452-83.207938 1.50478552-124.620305 3.20388268-19.921246.8179165-39.8316459.9345034-59.7456611 2.053377-10.8842918.6118557-21.7631609 1.3113777-32.6492603 1.8852748-5.0187223.2648061-10.0392521.5214783-15.0652047.6480068-3.0954662.0786284-9.39937176 1.3610853-12.26075745.1906965-2.43660638-.9968639-4.40685932-2.3904851-3.06744883-5.34402208 1.44244205-3.17857698 7.72013788-1.82562567 10.37726798-1.87714085 9.592782-.18617767 19.1647768-.72482762 28.7403869-1.31137765 21.7423738-1.33126071 43.4386545-2.88846518 65.2253135-3.25991674 41.517206-.70855967 82.979281-2.99601442 124.515467-3.38102261z"/><path d="m253.036092 37.9241722c2.179972-.6783023 3.558178 1.5572164 3.063183 3.4328931-.662408 2.510798-8.427598 4.543006-10.582233 5.5001858-8.526235 3.786438-17.095906 7.4793171-25.622141 11.2684539-18.57456 8.2538771-37.184412 16.4303881-55.756257 24.6896629-.364426.1620724-.728838.3241753-1.093235.4863093 13.059232 4.6144358 26.043947 9.4357236 38.971429 14.402938 6.917272 2.6574338 13.797442 5.4012288 20.699331 8.0964458 3.456826 1.349408 17.831613 4.738221 18.658718 8.171114 1.166453 4.847072-14.156699-1.106515-16.594576-1.881974-6.886505-2.188739-13.687042-4.639264-20.487578-7.076294-15.216371-5.4516072-30.367587-11.0759385-45.643682-16.3620182-1.428709-.4944323-2.858036-.9871628-4.287966-1.4782211-16.215774 7.2426905-32.398179 14.5553063-48.52788 21.9839373-8.6484005 3.983452-17.2506495 8.059563-25.8293704 12.19055-6.3598366 3.063155-17.8705254 11.801919-24.8764808 11.649886-2.6505351-.058474-4.4368637-.623426-4.7137718-3.818824-.3529221-4.086006 6.265724-5.76467 8.9397873-7.094286 9.1687342-4.560098 18.3944789-9.005047 27.6464665-13.394221 18.3754752-8.7162738 36.9228872-17.0844008 55.5363582-25.2861008.106673-.0470054.213349-.0940267.320028-.1410635-10.322086-3.4750817-20.673779-6.8666715-31.048073-10.1865206-5.929091-1.8972672-47.4996901-12.099689-45.9839351-17.5764851 1.7021703-6.1389054 38.5209911 8.3357412 44.1840321 10.1304534 15.6625 4.9640211 31.276134 10.0854732 46.792941 15.4804051l-5.11883-1.7675522c33.190617-14.8288885 66.733316-30.6295755 101.353735-41.4196741z"/></g></g></svg>

<svg xmlns="http://www.w3.org/2000/svg" xmlns:xlink="http://www.w3.org/1999/xlink" width="499" height="281" viewBox="0 0 499 281">
  <defs>
    <path id="valid-mark-a" d="M151.338462,285.079842 C184.92629,285.079842 215.057096,270.291567 235.564159,246.876322 C246.361169,234.548148 274.438502,263.08813 279,246.876322 C279.999195,243.32513 293.44627,198.835944 279,158.2 C254.228504,88.5202077 194.56616,0.037476096 151.338462,0.037476096 C67.1505431,0.037476096 -39.1846154,258.523776 15.2544362,285.079842 C47.7693959,300.941055 69.0991074,249.323363 73.4356072,253.527662 C93.5789378,273.056915 121.053413,285.079842 151.338462,285.079842 Z"/>
  </defs>
  <g fill="none" fill-rule="evenodd" transform="translate(0 -5)">
    <g transform="translate(0 91)">
      <polygon fill="#FFF" points="7.682 15.771 292.242 4.702 292.242 155.363 11 162"/>
      <path fill="#917149" d="M5.53641759,17.1215154 C18.58618,9.50359518 13.4255634,36.3809625 13.2113662,41.0326929 C12.5678707,55.0375916 13.4409278,68.425212 14.8499298,82.3415408 C16.1405358,95.0965186 14.6565196,107.793655 14.161245,120.549536 C13.8982434,127.321523 13.7545414,134.083568 13.2448063,140.843806 C13.0864371,142.952114 13.330363,152.452979 12.2247298,157.512585 C15.0699761,157.38941 17.7768227,157.516696 19.2868851,157.471008 C29.8584671,157.151072 40.4309528,156.870901 51.0007271,156.47324 C91.662048,154.944053 132.345964,155.635441 172.99915,153.704074 C211.450715,151.875737 250.043271,151.488017 288.523756,151.015343 C291.890358,151.30907 293.396065,154.843734 291.235114,157.560482 C289.121159,160.218484 279.320506,159.635549 276.26571,159.88228 C265.427512,160.753519 254.6101,161.145758 243.739365,161.249692 C220.846472,161.467502 198.040342,162.449001 175.185408,163.753149 C134.577411,166.068621 93.9097632,165.87702 53.2800748,167.530025 C43.4179647,167.931301 33.5549508,168.231354 23.6883217,168.489834 C18.4852272,168.626304 4.8597532,171.7615 2.28215624,165.542623 C0.461556987,161.148458 2.99218715,159.125818 6.69383678,158.205282 C5.93343867,154.823107 6.34519827,149.65336 6.30282791,148.458111 C6.10399504,142.855609 6.03440354,137.250396 5.81839875,131.649702 C5.30504844,118.302751 4.96432121,104.87898 3.93581303,91.5618542 C2.95339792,78.8321821 0.471602244,66.488422 0.40020317,53.6638535 C0.352302525,44.990324 -2.05719029,23.0132252 5.53641759,17.1215154 Z M288.733665,14.1825292 C288.741027,8.48784236 295.56732,7.34275932 298.595003,11.2154356 C301.490732,14.9200097 299.627126,26.1358585 299.697621,30.5679715 C299.904889,43.5501985 301.018353,56.4660148 302.184264,69.3865124 L302.622272,74.2320573 C303.923723,88.650885 304.844681,103.076039 305.848787,117.517461 C306.314237,124.19184 311.441413,150.830611 303.988796,154.719555 C294.477355,159.682184 296.272273,134.432516 296.005656,129.829589 C295.150675,115.013101 294.076074,100.176729 292.73576,85.3972947 C290.569385,61.5041927 288.715721,38.1723351 288.733665,14.1825292 Z M231.624117,0.0287786748 C243.926449,-0.0850969862 256.160996,0.130001485 268.445252,0.834946053 C273.893273,1.14765223 279.338582,1.44951311 284.790218,1.67997576 C287.939911,1.81373447 295.134949,0.780719547 297.896918,2.24212386 C308.741444,7.98109567 286.648401,8.61012313 283.96235,8.56493437 C272.692141,8.3751416 261.443624,7.497576 250.174319,7.22102082 C208.724897,6.2024663 166.966381,8.72580634 125.554014,10.4249035 C105.632768,11.24282 85.7223681,11.3594069 65.8083529,12.4782805 C54.9240611,13.0901362 44.045192,13.7896582 33.1590926,14.3635553 C28.1403703,14.6283614 23.1198405,14.8850336 18.0938879,15.0115621 C14.9984217,15.0901905 8.69451614,16.3726474 5.83313045,15.2022586 C3.39652407,14.2053947 1.42627113,12.8117735 2.76568162,9.85823652 C4.20812367,6.67965954 10.4858195,8.03261085 13.1429496,7.98109567 C22.7357316,7.794918 32.3077264,7.25626805 41.8833365,6.66971802 C63.6257103,5.33845731 85.321991,3.78125284 107.10865,3.40980128 C148.625856,2.70124161 190.087931,0.413786862 231.624117,0.0287786748 Z"/>
      <path fill="#917149" d="M253.036092,37.9241722 C255.216064,37.2458699 256.59427,39.4813886 256.099275,41.3570653 C255.436867,43.8678633 247.671677,45.9000713 245.517042,46.8572511 C236.990807,50.6436891 228.421136,54.3365682 219.894901,58.125705 C201.320341,66.3795821 182.710489,74.5560931 164.138644,82.8153679 C163.774218,82.9774403 163.409806,83.1395432 163.045409,83.3016772 C176.104641,87.916113 189.089356,92.7374008 202.016838,97.7046152 C208.93411,100.362049 215.81428,103.105844 222.716169,105.801061 C226.172995,107.150469 240.547782,110.539282 241.374887,113.972175 C242.54134,118.819247 227.218188,112.86566 224.780311,112.090201 C217.893806,109.901462 211.093269,107.450937 204.292733,105.013907 C189.076362,99.5622998 173.925146,93.9379685 158.649051,88.6518888 C157.220342,88.1574565 155.791015,87.664726 154.361085,87.1736677 C138.145311,94.4163582 121.962906,101.728974 105.833205,109.157605 C97.1848045,113.141057 88.5825555,117.217168 80.0038346,121.348155 C73.643998,124.41131 62.1333092,133.150074 55.1273538,132.998041 C52.4768187,132.939567 50.6904901,132.374615 50.413582,129.179217 C50.0606599,125.093211 56.679306,123.414547 59.3533693,122.084931 C68.5221035,117.524833 77.7478482,113.079884 86.9998358,108.69071 C105.375311,99.9744362 123.922723,91.6063092 142.536194,83.4046092 C142.642867,83.3576038 142.749543,83.3105825 142.856222,83.2635457 C132.534136,79.788464 122.182443,76.3968742 111.808149,73.0770251 C105.879058,71.1797579 64.3084589,60.9773361 65.8242139,55.50054 C67.5263842,49.3616346 104.345205,63.8362812 110.008246,65.6309934 C125.670746,70.5950145 141.28438,75.7164666 156.801187,81.1113985 L151.682357,79.3438463 C184.872974,64.5149578 218.415673,48.7142708 253.036092,37.9241722 Z"/>
    </g>
    <g transform="translate(220.8)">
      <ellipse cx="151.338" cy="173.301" fill="#E3C094" rx="111.877" ry="111.779"/>
      <mask id="valid-mark-b" fill="#fff">
        <use xlink:href="#valid-mark-a"/>
      </mask>
      <g mask="url(#valid-mark-b)">
        <g transform="matrix(-1 0 0 1 316.385 -9.308)">
          <g transform="translate(90.83)">
            <path fill="#191847" d="M67.5692308,85.9996856 C80.2289774,85.9996856 84.8331663,70.8566935 92.0255469,62.5466305 C97.1715476,56.6009508 105.95418,58.3738513 108.553846,50.050029 C115.090939,29.1190302 97.5944588,14.3873518 74.7692308,14.3873518 C51.9440028,14.3873518 36.5538462,27.307473 33.2307692,46.7298709 C29.9076923,66.1522688 44.7440028,85.9996856 67.5692308,85.9996856 Z"/>
            <path fill="#D4A181" d="M42.2510858,10.1087005 C48.6699531,22.0625111 47.9072248,52.3843432 39.6114108,54.5208226 C36.3029355,55.3728775 29.2547682,53.285581 22.081503,48.9655756 L26.5846154,80.7905138 L0,80.7905138 L9.15134543,38.1700565 C4.04759011,32.1842399 0.593345376,24.8486518 1.17058302,16.6289608 C2.83384271,-7.05535874 35.8322186,-1.8451102 42.2510858,10.1087005 Z" transform="translate(59.815 34.308)"/>
            <path fill="#191847" d="M103.661347,44.4840613 C98.5772987,45.4376169 88.3381412,50.2870851 80.1743346,57.2434052 C79.2090335,56.7327923 78.1020806,56.4426877 76.9255404,56.4426877 C73.1591545,56.4426877 70.1058955,59.4156586 70.1058955,63.083004 C70.1058955,64.5800648 70.6146859,65.9614161 71.4730813,67.0720584 C69.8568755,69.7324725 68.754008,72.5284366 68.3925106,75.4027523 C62.7917927,75.4027523 42.3510428,54.229249 62.7139829,34.3083004 C83.0769231,14.3873518 112.503892,42.8255681 103.661347,44.4840613 Z"/>
          </g>
          <g transform="translate(0 206.957)">
            <polygon fill="#B28B67" points="148.431 0 202.798 137.484 239.263 253.716 253.662 253.716 197.915 0"/>
            <path fill="#B28B67" d="M137.483034,0 C136.904099,48.3129363 128.461107,113.358463 127.112201,116.370046 C126.212931,118.377767 95.1686666,143.909448 33.9794081,192.965086 L43.8968175,203.568562 C116.094474,161.509507 153.863778,137.675158 157.20473,132.065517 C162.216159,123.651055 178.531643,46.2200725 191.630769,0 L137.483034,0 Z"/>
            <path fill="#E4E4E4" d="M2.96555468,28.1154457 C1.72697977,31.4193231 1.10769231,33.8914971 1.10769231,35.5319677 C1.10769231,37.5276995 1.44045881,40.4399685 2.10599182,44.2687747 C4.42321607,44.2687747 25.2485006,44.2687747 64.5818453,44.2687747 C66.2053713,38.906174 65.268178,36.0110785 61.7702653,35.5834881 C58.2723527,35.1558977 55.3665772,34.7698178 53.052939,34.4252483 L24.0152903,21.4914901 C23.4558979,21.2423292 22.8004359,21.4938216 22.551275,22.053214 C22.5471082,22.0625688 22.5430713,22.0719809 22.5391653,22.0814475 L20.6730976,26.6040894 L20.6730976,26.6040894 C17.4349453,28.1136071 14.8036105,28.868366 12.779093,28.868366 C11.1344244,28.868366 8.86320093,28.204803 5.96542249,26.8776769 L5.96542271,26.8776764 C4.85189965,26.3677045 3.53579697,26.8569794 3.02582511,27.9705025 C3.00403074,28.0180905 2.983928,28.0664352 2.96555468,28.1154457 Z" transform="rotate(50 -155.134 140.594)"/>
            <path fill="#E4E4E4" d="M2.96555468,28.1154457 C1.72697977,31.4193231 1.10769231,33.8914971 1.10769231,35.5319677 C1.10769231,37.5276995 1.44045881,40.4399685 2.10599182,44.2687747 C4.42321607,44.2687747 25.2485006,44.2687747 64.5818453,44.2687747 C66.2053713,38.906174 65.268178,36.0110785 61.7702653,35.5834881 C58.2723527,35.1558977 55.3665772,34.7698178 53.052939,34.4252483 L24.0152903,21.4914901 C23.4558979,21.2423292 22.8004359,21.4938216 22.551275,22.053214 C22.5471082,22.0625688 22.5430713,22.0719809 22.5391653,22.0814475 L20.6730976,26.6040894 L20.6730976,26.6040894 C17.4349453,28.1136071 14.8036105,28.868366 12.779093,28.868366 C11.1344244,28.868366 8.86320093,28.204803 5.96542249,26.8776769 L5.96542271,26.8776764 C4.85189965,26.3677045 3.53579697,26.8569794 3.02582511,27.9705025 C3.00403074,28.0180905 2.983928,28.0664352 2.96555468,28.1154457 Z" transform="translate(230.4 220.237)"/>
            <polygon fill="#69A1AC" points="184.985 241.744 253.445 234.321 202.708 0 141.39 0"/>
            <path fill="#89C5CC" d="M48.1402613,175.858238 L93.0461538,228.964699 C140.344563,177.351736 167.919659,143.674267 175.771442,127.932295 C183.623225,112.190322 190.681578,69.546224 196.946502,0 L127.914254,0 C124.492035,61.1837343 122.185221,93.1991907 120.993812,96.0463693 C119.802403,98.8935478 95.5178865,125.497504 48.1402613,175.858238 Z"/>
          </g>
          <g transform="translate(24.37 90.751)">
            <path fill="#B28B67" d="M59.4466787,85.8105033 L79.0658794,88.6572239 C58.0064066,134.308872 46.7161735,158.452107 45.1951803,161.08693 C41.7729455,167.015282 45.7977234,177.341064 47.3711091,182.807285 C39.4196526,185.101405 41.9590787,172.826983 31.9049682,175.888459 C22.7280423,178.682832 15.1551169,185.017536 6.06621652,177.484874 C4.94878963,176.558778 4.00749444,173.530463 7.55919129,171.766002 C16.4077634,167.370088 29.399513,159.326125 31.4190372,156.361497 C34.1730193,152.318697 43.5155665,128.801699 59.4466787,85.8105033 L59.4466787,85.8105033 Z M210.859059,98.0664271 L244.296546,126.389203 C253.675985,129.634422 261.43848,133.399051 267.584032,137.68309 C269.002595,139.168316 270.63823,142.089708 264.388519,141.167929 L263.705569,141.068418 C257.665102,140.199722 251.486582,139.633067 250.50669,141.638152 C249.489822,143.718901 253.113031,146.545346 251.158234,149.312105 C249.855036,151.156611 244.673112,145.941242 235.612461,133.666 L201.720402,116.766241 L210.859059,98.0664271 Z"/>
            <path fill="#C5CFD6" d="M136.227946,10.1970965 L147.988458,5.13612279 C168.003778,44.7013793 195.975173,82.229907 239.842158,112.158009 L231.245962,130.492582 C193.417192,112.466297 157.922199,98.9976212 141.323059,68.4345027 C135.751958,58.17673 136.96503,22.9806438 136.227946,10.1970965 Z" transform="rotate(5 188.035 67.814)"/>
            <path fill="#323337" d="M99.6923077,121.73913 C134.5163,125.428195 161.926601,125.428195 181.923213,121.73913 C184.400659,121.28208 184.791508,117.137821 183.642596,114.32518 C165.751037,70.5250307 153.482181,32.3069385 153.482181,1.88434172 C150.199305,3.53794741 144.453962,3.78576089 136.246154,2.62778216 C114.187793,33.9792464 104.04835,69.9514644 99.6923077,121.73913 Z"/>
            <path fill="#DDE3E9" d="M130.794781,-0.57402901 L130.762365,-2.90101205e-05 L139.955178,5.86197757e-14 C142.074216,12.4519457 148.71216,179.50865 169.06702,236.909709 L169.688042,238.615299 L56.9191219,238.615299 C59.3639121,187.574979 78.6492092,126.263123 98.1854451,74.9567299 C80.9106266,90.7506572 65.8542288,117.512677 53.0162126,155.242499 L53.0162126,155.242499 L31.893365,149.825065 C47.598596,82.2095989 79.8882522,32.5116381 128.762334,0.731182388 L129.081138,5.86197757e-14 L129.897365,-2.90101205e-05 L130.794781,-0.57402901 Z"/>
          </g>
        </g>
      </g>
    </g>
  </g>
</svg>
